X: 21502
T: MR. BUBBIE MAITLAND'S REEL
C: Nathaniel Gow.
%R: reel
B: W. Hamilton "Universal Tune-Book" Vol. 2 Glasgow 1846 p.150 #2
S: http://s3-eu-west-1.amazonaws.com/itma.dl.printmaterial/book_pdfs/hamiltonvol2web.pdf
Z: 2016 John Chambers <jc:trillian.mit.edu>
M: C|
L: 1/8
K: D
% - - - - - - - - - - - - - - - - - - - - - - - - -
A |\
FDAF d2dA | d2df eEEA |\
FDAF d2dB | cdeg fdd :| g |\
f>ede fgaf | gfed cAcg |
fede fgaf | ecdB Addg |\
fdfg fgaf | g>fed cAeg |\
fdgb afge | fdec dDD |]
% - - - - - - - - - - - - - - - - - - - - - - - - -
